cssgg/lock.svg

<svg
  width="24"
  height="24"
  viewBox="0 0 24 24"
  fill="none"
  xmlns="http://www.w3.org/2000/svg"
>
  <path
    fill-rule="evenodd"
    clip-rule="evenodd"
    d="M18 10.5C19.6569 10.5 21 11.8431 21 13.5V19.5C21 21.1569 19.6569 22.5 18 22.5H6C4.34315 22.5 3 21.1569 3 19.5V13.5C3 11.8431 4.34315 10.5 6 10.5V7.5C6 4.18629 8.68629 1.5 12 1.5C15.3137 1.5 18 4.18629 18 7.5V10.5ZM12 3.5C14.2091 3.5 16 5.29086 16 7.5V10.5H8V7.5C8 5.29086 9.79086 3.5 12 3.5ZM18 12.5H6C5.44772 12.5 5 12.9477 5 13.5V19.5C5 20.0523 5.44772 20.5 6 20.5H18C18.5523 20.5 19 20.0523 19 19.5V13.5C19 12.9477 18.5523 12.5 18 12.5Z"
    fill="currentColor"
  />
</svg>

<svg viewBox="0 0 24 24" xmlns="http://www.w3.org/2000/svg"><path fill-rule="evenodd" d="M18 10.5c1.65 0 3 1.34 3 3v6c0 1.65-1.35 3-3 3H6c-1.66 0-3-1.35-3-3v-6c0-1.66 1.34-3 3-3v-3c0-3.32 2.68-6 6-6 3.31 0 6 2.68 6 6v3Zm-6-7c2.2 0 4 1.79 4 4v3H8v-3c0-2.21 1.79-4 4-4Zm6 9H6c-.56 0-1 .44-1 1v6c0 .55.44 1 1 1h12c.55 0 1-.45 1-1v-6c0-.56-.45-1-1-1Z"/></svg>
